packages/icons/svg/multicolor/geniet-shoe.svg

<svg width="24" height="24" viewBox="-0.12 -0.37 24.71 24.71" fill="none" xmlns="http://www.w3.org/2000/svg">
<path d="M2.99121 8.08398C2.70775 8.80468 1.85326 10.5996 2.027 11.3765C2.24645 12.3686 2.83166 13.2109 3.66376 13.7632L15.9075 21.7001L16.0081 21.7563C16.3555 21.8967 16.8402 21.9996 17.3979 21.9996C18.2575 21.9996 20.2643 20.7985 21.1512 19.9935L2.99121 8.08398Z" fill="#2CAEC5"/>
<path d="M21.2317 19.9069C21.2042 19.9441 21.1585 20 21.1585 20L3 8.0916L6.07368 3.22209C6.53108 2.47724 7.30864 2.02101 8.15025 2.00239C8.96441 1.96515 9.68709 2.36551 10.1628 3.0545C10.2085 3.11967 10.3732 3.45486 10.4006 3.54797C10.5378 4.04144 10.6385 4.38593 11.2514 4.82354C11.9923 5.35425 12.7608 5.09355 12.7974 5.08424C12.8522 5.0563 13.7762 4.64663 14.8373 5.00975C15.6149 5.27976 16.1821 5.77323 16.6303 6.58326L17.5908 8.30574L18.1763 9.35785L18.8532 10.5776C18.8441 10.5776 18.8957 10.6496 18.8957 10.6496L19.4204 11.6204L21.2042 14.8326C22.613 16.9926 21.8446 19.0969 21.2317 19.9069Z" fill="#36CEE9"/>
<path d="M16.9892 7.93927C17.4331 7.67887 18.0041 7.82765 18.2645 8.27157C18.5249 8.7155 18.3761 9.28646 17.9322 9.54686L15.6773 10.8695C15.2333 11.1299 14.6624 10.9812 14.402 10.5372C14.1416 10.0933 14.2903 9.52235 14.7343 9.26195L16.9892 7.93927Z" fill="#D2FBFF"/>
<path d="M18.29 10.2059C18.7339 9.94547 19.3048 10.0942 19.5652 10.5382C19.8256 10.9821 19.6769 11.5531 19.2329 11.8135L16.978 13.1361C16.5341 13.3965 15.9631 13.2478 15.7027 12.8038C15.4423 12.3599 15.5911 11.789 16.035 11.5286L18.29 10.2059Z" fill="#D2FBFF"/>
</svg>

<svg xmlns="http://www.w3.org/2000/svg" width="24" height="24" fill="none" viewBox="0 0 24 24">
  <path fill="#2CAEC5" d="M2.991 8.084c-.283.72-1.138 2.516-.964 3.293.22.992.805 1.834 1.637 2.386L15.908 21.7l.1.056c.348.14.832.244 1.39.244.86 0 2.866-1.201 3.753-2.006L2.991 8.084Z"/>
  <path fill="#36CEE9" d="M21.232 19.907a3.11 3.11 0 0 1-.073.093L3 8.092l3.074-4.87c.457-.745 1.235-1.201 2.076-1.22.814-.037 1.537.364 2.013 1.053.046.065.21.4.238.493.137.493.238.838.85 1.276.741.53 1.51.27 1.546.26a2.922 2.922 0 0 1 2.04-.074c.778.27 1.345.763 1.793 1.573l.96 1.723.586 1.052.677 1.22c-.009 0 .043.072.043.072l.524.97 1.784 3.213c1.409 2.16.64 4.264.028 5.074Z"/>
  <path fill="#D2FBFF" d="M16.99 7.94a.932.932 0 0 1 .942 1.607l-2.255 1.322a.932.932 0 1 1-.943-1.607l2.255-1.323Zm1.3 2.266a.932.932 0 1 1 .943 1.607l-2.255 1.323a.932.932 0 1 1-.943-1.607l2.255-1.323Z"/>
</svg>
